2 Export/Icons/Brands/Dribbble.svg

<svg xmlns="http://www.w3.org/2000/svg" xmlns:xlink="http://www.w3.org/1999/xlink" width="24" height="24" viewBox="0 0 24 24">
  <defs>
    <path id="dribbble-a" d="M12,21 C7.03875,21 3,16.96125 3,12 C3,7.03875 7.03875,3 12,3 C16.96125,3 21,7.03875 21,12 C21,16.96125 16.96125,21 12,21 Z M19.59,13.2315 C19.3275,13.149 17.2125,12.51675 14.802,12.903 C15.807,15.666 16.21725,17.916 16.296,18.384 C18.021,17.21775 19.248,15.369 19.59225,13.2315 L19.59,13.2315 Z M15.00375,19.0875 C14.889,18.4125 14.44125,16.0635 13.36125,13.26 L13.31175,13.275 C8.96925,14.78625 7.41675,17.79375 7.28175,18.075 C8.57925,19.0935 10.22175,19.6995 11.99925,19.6995 C13.06425,19.6995 14.07675,19.482 14.99925,19.089 L15.00375,19.0875 Z M6.28875,17.1525 C6.46275,16.8525 8.5725,13.36125 12.53775,12.07875 C12.639,12.045 12.74025,12.01575 12.8415,11.98875 C12.6465,11.55 12.4365,11.1135 12.2175,10.68375 C8.3775,11.83125 4.6545,11.7825 4.317,11.775 L4.314,12.009 C4.314,13.98375 5.0625,15.78675 6.2895,17.15025 L6.28875,17.1525 Z M4.47375,10.43625 C4.81875,10.44225 7.986,10.45575 11.5815,9.50025 C10.308,7.23675 8.934,5.33175 8.7315,5.05425 C6.5805,6.06675 4.974,8.04675 4.4745,10.43175 L4.47375,10.43625 Z M10.2,4.539 C10.4115,4.824 11.80875,6.7245 13.0665,9.039 C15.80025,8.01525 16.959,6.459 17.09625,6.2625 C15.73875,5.055 13.95375,4.323 12,4.323 C11.38125,4.323 10.7775,4.398 10.2,4.53675 L10.2,4.539 Z M17.95125,7.15125 C17.78775,7.36875 16.5,9.021 13.65825,10.18125 C13.83825,10.54875 14.01075,10.92 14.16825,11.29575 C14.22825,11.43075 14.28075,11.56575 14.33325,11.69325 C16.89075,11.37075 19.43325,11.88825 19.68825,11.94075 C19.67325,10.12575 19.02825,8.46075 17.95575,7.15575 L17.95125,7.15125 Z"/>
  </defs>
  <g fill="none" fill-rule="evenodd">
    <polygon points="0 0 24 0 24 24 0 24"/>
    <mask id="dribbble-b" fill="#fff">
      <use xlink:href="#dribbble-a"/>
    </mask>
    <use fill="#000" xlink:href="#dribbble-a"/>
    <g fill="#000" mask="url(#dribbble-b)">
      <rect width="24" height="24"/>
    </g>
  </g>
</svg>

<svg xmlns="http://www.w3.org/2000/svg" xmlns:xlink="http://www.w3.org/1999/xlink" width="24" height="24" viewBox="0 0 24 24">
  <defs>
    <path id="dribbble-a" d="M12 21c-4.961 0-9-4.039-9-9s4.039-9 9-9 9 4.039 9 9-4.039 9-9 9zm7.59-7.768c-.262-.083-2.378-.715-4.788-.329 1.005 2.763 1.415 5.013 1.494 5.481a7.71 7.71 0 0 0 3.296-5.152h-.002zm-4.586 5.855c-.115-.674-.563-3.023-1.643-5.827l-.05.015c-4.342 1.511-5.894 4.519-6.03 4.8A7.621 7.621 0 0 0 12 19.7a7.631 7.631 0 0 0 3-.611l.005-.002zm-8.715-1.934c.174-.3 2.284-3.792 6.249-5.074a5.17 5.17 0 0 1 .303-.09 27.32 27.32 0 0 0-.623-1.305c-3.84 1.147-7.564 1.099-7.901 1.091l-.003.234c0 1.975.748 3.778 1.976 5.141l-.001.003zm-1.815-6.717c.345.006 3.512.02 7.107-.936a49.105 49.105 0 0 0-2.85-4.446 7.706 7.706 0 0 0-4.256 5.378l-.001.004zM10.2 4.54a41.02 41.02 0 0 1 2.867 4.5c2.733-1.024 3.892-2.58 4.03-2.776A7.642 7.642 0 0 0 12 4.322c-.619 0-1.223.075-1.8.214v.002zm7.751 2.612c-.163.218-1.451 1.87-4.293 3.03.18.368.353.739.51 1.115.06.135.113.27.165.397 2.558-.322 5.1.195 5.355.248a7.608 7.608 0 0 0-1.732-4.785l-.005-.005z"/>
  </defs>
  <g fill="none" fill-rule="evenodd">
    <polygon points="0 0 24 0 24 24 0 24"/>
    <mask id="dribbble-b" fill="#fff">
      <use xlink:href="#dribbble-a"/>
    </mask>
    <use fill="#000" xlink:href="#dribbble-a"/>
    <g fill="#000" mask="url(#dribbble-b)">
      <rect width="24" height="24"/>
    </g>
  </g>
</svg>
